public/assets/discord.svg

<svg width="40" height="46" viewBox="0 0 40 46" fill="none" xmlns="http://www.w3.org/2000/svg">
<path d="M26.5371 21.85C26.5371 23.253 25.5086 24.403 24.2057 24.403C22.9257 24.403 21.8743 23.253 21.8743 21.85C21.8743 20.447 22.9029 19.297 24.2057 19.297C25.5086 19.297 26.5371 20.447 26.5371 21.85ZM15.8629 19.297C14.56 19.297 13.5314 20.447 13.5314 21.85C13.5314 23.253 14.5829 24.403 15.8629 24.403C17.1657 24.403 18.1943 23.253 18.1943 21.85C18.2171 20.447 17.1657 19.297 15.8629 19.297ZM40 4.738V46C34.2416 40.8794 36.0832 42.5744 29.3943 36.317L30.6057 40.572H4.68571C2.10286 40.572 0 38.456 0 35.834V4.738C0 2.116 2.10286 0 4.68571 0H35.3143C37.8971 0 40 2.116 40 4.738ZM33.4857 26.542C33.4857 19.136 30.1943 13.133 30.1943 13.133C26.9029 10.649 23.7714 10.718 23.7714 10.718L23.4514 11.086C27.3371 12.282 29.1429 14.007 29.1429 14.007C23.7133 11.0126 17.3354 11.0121 12.0686 13.34C11.2229 13.731 10.72 14.007 10.72 14.007C10.72 14.007 12.6171 12.19 16.7314 10.994L16.5029 10.718C16.5029 10.718 13.3714 10.649 10.08 13.133C10.08 13.133 6.78857 19.136 6.78857 26.542C6.78857 26.542 8.70857 29.877 13.76 30.038C13.76 30.038 14.6057 29.003 15.2914 28.129C12.3886 27.255 11.2914 25.415 11.2914 25.415C11.6277 25.6518 12.1821 25.9588 12.2286 25.99C16.0866 28.164 21.5668 28.8763 26.4914 26.795C27.2914 26.496 28.1829 26.059 29.12 25.438C29.12 25.438 27.9771 27.324 24.9829 28.175C25.6686 29.049 26.4914 30.038 26.4914 30.038C31.5429 29.877 33.4857 26.542 33.4857 26.542Z" fill="#5865F2"/>
</svg>

<svg width="40" height="46" fill="none" xmlns="http://www.w3.org/2000/svg"><path d="M26.537 21.85c0 1.403-1.028 2.553-2.331 2.553-1.28 0-2.332-1.15-2.332-2.553s1.029-2.553 2.332-2.553 2.331 1.15 2.331 2.553Zm-10.674-2.553c-1.303 0-2.332 1.15-2.332 2.553s1.052 2.553 2.332 2.553c1.303 0 2.331-1.15 2.331-2.553.023-1.403-1.028-2.553-2.331-2.553ZM40 4.738V46c-5.758-5.12-3.917-3.426-10.606-9.683l1.212 4.255H4.686C2.103 40.572 0 38.456 0 35.834V4.738C0 2.116 2.103 0 4.686 0h30.628C37.897 0 40 2.116 40 4.738Zm-6.514 21.804c0-7.406-3.292-13.409-3.292-13.409-3.291-2.484-6.423-2.415-6.423-2.415l-.32.368c3.886 1.196 5.692 2.921 5.692 2.921-5.43-2.994-11.808-2.995-17.074-.667-.846.391-1.349.667-1.349.667s1.897-1.817 6.011-3.013l-.228-.276s-3.132-.069-6.423 2.415c0 0-3.291 6.003-3.291 13.409 0 0 1.92 3.335 6.971 3.496 0 0 .846-1.035 1.531-1.909-2.902-.874-4-2.714-4-2.714.337.237.891.544.938.575 3.858 2.174 9.338 2.886 14.262.805.8-.299 1.692-.736 2.629-1.357 0 0-1.143 1.886-4.137 2.737.686.874 1.508 1.863 1.508 1.863 5.052-.161 6.995-3.496 6.995-3.496Z" fill="#5865F2"/></svg>
